X: 13933
T: Foxhunters, The
R: reel
M: 4/4
K: Amixolydian
e2 cA eAcA|eAcA BAGA|e2 cA eAcA|BdcA BAGB|
e2 cA eAcA|eAcA BAGB|ceee fcec|BdcA BAGB||
|:G A2 f fefd|Adfd edBd|G A2 f fefd|egfd edBd:|
|:afec A2 ce|afec fBBB|afec A2 ec|Bcde fBBB:|
|:eaag a3 f|eaaa faec|eaag a3 f|eaec BABc:|
|:AAcA eAcA|Ac c2 BABc|AAcA eAcA|faec BABc:|

